!!!OTL: 1779. Jaegers Zeitvertreib (Tubackslied).
!!!ARE: Europa, Mitteleuropa, Deutschland, Rheinland, Koeln
!!!SCT: E1779
!!!TXL: @@DE
!!!YEM: Copyright 1995, estate of Helmut Schaffrath.
**kern	**text
*ICvox	*
*M4/4	*
*met(c)	*
*k[b-]	*
*F:	*
=1	=1
!LO:TX:a:t=Langsam.	!
{4cc^^	Und
8g	wenn
8g	der
8.g	Jä-
16g	-ger
8b-	in
8b-	den
=2	=2
8.a	Wald
16a	hi-
4a	-nein
*	*^
(16aL	ge-	(geht)
16a	-o-	.
16a	-e-	.
16aJ	-o-	.
4a;)}	-eht,	.
*	*v	*v
=3	=3
{4cc	und
8g	er
8g	nicht
4g	gleich
4b-/	ein
=4	=4
4a	Hirʒ-
4a	-lein
*	*^
(16aL	ſe-	(ſieht)
16a	-o-	.
16a	-e-	.
16aJ	-o-	.
4a;)}	-eht,	.
*	*v	*v
=5	=5
{4a	ſo
8f	raucht
8f	er
*	*^
16fL	di-	(dir)
16f	-o-	.
16f	-i-	.
16fJ	-o-	.
4f;	-ir	.
*	*v	*v
=6	=6
4b-	vor
8g	ſein
*	*^
8g	Plai-	Plaiſir
16gL	-ſi-	.
16g	-o-	.
16g	-i-	.
16gJ	-o-	.
8g;}	-ir,	.
*	*v	*v
{16f	ei-
16g	-ne
=7	=7
!LO:TX:a:t=Sehr rasch.	!
4.a	Pfei-
8f	-fe
8aL	Rauch-
8gJ	.
8gL	-tu-
8eJ	.
=8	=8
4f	-back.
4r	.
4r}	.
{4a	Tu-
=9	=9
4g^	-back,
4c'	back,
4c'	back,
4a	Tu-
=10	=10
4g^	-back,
4c'	back,
4c'}	back,
{4g	du
=11	=11
4.a	e-
8f	-de-
4b-/	-les
4a	Ge-
=12	=12
2a	-trän-
4g}	-ke!
{8fL	wer
8gJ	.
=13	=13
4a	dich
4a	ge-
4b-/	-pflan-
8gL	-ʒet
8fJ	.
=14	=14
4g	hat
8g	bei
8g	der
4g}	Nacht,
{4g	hat
=15	=15
2cc	wohl-
2b-	-ge-
=16	=16
*M2/4	*
8aq	.
4ff}	-baut,
{4dd	hat
=17	=17
*M2/4	*
*met(c|)	*
2cc	wohl-
2b-	-ge-
=18	=18
*M2/4	*
8aq	.
4ff}	-baut,
{4dd	hat
=19	=19
*M2/4	*
*met(c|)	*
2cc	wohl-
2b-	-ge-
=20	=20
2a	-baut.
2r}	.
==	==
!!!AGN: Scherz - Lied, Tabak; Jaeger - Lied
!!!ONB: ESAC (Essen Associative Code) Database: ERK3
!!!AMT: simple quadruple
!!!AIN: vox
!!!EED: Helmut Schaffrath
!!!EEV: 1.0
!!!GTL: Vermischter Inhalt.
!!!URL-scan: https://rosdok.uni-rostock.de/mcrviewer/recordIdentifier/rosdok_ppn745177999/iview2/phys_0564.iview2?x=-4.404412318551749&y=1322.3061729539186&scale=0.6456904138606623&rotation=0&layout=singlePageLayout
!!!ENC: Anna Maria Matuszewska
!!!EEV: 2025/08/01
*-	*-
